Papirus/48x48/apps/vim.svg

<svg xmlns="http://www.w3.org/2000/svg" width="48" height="48" version="1">
 <path style="opacity:0.2" d="m 23.99939,3.9999997 c -1.10005,0 -2.200835,0.4100214 -3.023149,1.2323158 L 4.2322781,21.978145 c -1.644629,1.644587 -1.642296,4.39682 0.0024,6.041409 L 20.978641,44.765383 c 1.644629,1.644589 4.399315,1.646922 6.043944,0.0024 L 43.766548,28.021955 c 1.644628,-1.644589 1.644629,-4.399178 0,-6.043766 L 27.022541,5.2323155 C 26.200227,4.4100212 25.099441,3.9999997 23.99939,3.9999997 Z"/>
 <path style="fill:#159532" d="M 23.99939,3 C 22.89934,3 21.798555,3.4100214 20.976241,4.2323158 L 4.2322781,20.978145 c -1.644629,1.644587 -1.642296,4.39682 0.0024,6.041409 L 20.978641,43.765383 c 1.644629,1.644589 4.399315,1.646922 6.043944,0.0024 L 43.766548,27.021955 c 1.644628,-1.644589 1.644629,-4.399178 0,-6.043766 L 27.022541,4.2323158 C 26.200227,3.4100215 25.099441,3 23.99939,3 Z"/>
 <path style="opacity:0.2;fill:#ffffff" d="M 24,3 C 22.89995,3 21.798876,3.4101275 20.976562,4.2324219 L 4.2324219,20.978516 C 3.2862751,21.924638 2.9037262,23.234678 3.046875,24.492188 3.1538236,23.568432 3.5371786,22.673741 4.2324219,21.978516 L 20.976562,5.2324219 C 21.798876,4.4101275 22.89995,4 24,4 c 1.100051,0 2.201124,0.4101276 3.023438,1.2324219 L 43.765625,21.978516 c 0.696999,0.696981 1.081282,1.594754 1.1875,2.521484 0.144413,-1.259969 -0.23987,-2.573878 -1.1875,-3.521484 L 27.023438,4.2324219 C 26.201124,3.4101276 25.100051,3 24,3 Z"/>
 <path style="opacity:0.2;fill-rule:evenodd" d="m 7,8.992398 c -1.108,0 -2,0.892 -2,2 0,1.108 0.892,2 2,2 l 1,0 0,24 c 6.828e-4,3.531331 4.242677,5.32978 6.78125,2.875 L 42.683594,12.865445 C 43.451112,12.58635 44,11.858733 44,10.992398 c 0,-1.108 -0.892,-2 -2,-2 l -10,0 c -1.108,0 -2,0.892 -2,2 0,0.828486 0.500014,1.535497 1.214844,1.839844 L 16,27.554898 l 0,-14.5625 1,0 c 1.108,0 2,-0.892 2,-2 0,-1.108 -0.892,-2 -2,-2 l -10,0 z"/>
 <path style="fill:#e4e4e4;fill-rule:evenodd" d="m 7,8 c -1.108,0 -2,0.892 -2,2 0,1.108 0.892,2 2,2 l 1,0 0,24 c 6.828e-4,3.531331 4.242677,5.32978 6.78125,2.875 L 42.683594,11.873047 C 43.451112,11.593952 44,10.866335 44,10 44,8.892 43.108,8 42,8 L 32,8 c -1.108,0 -2,0.892 -2,2 0,0.828486 0.500014,1.535497 1.214844,1.839844 L 16,26.5625 16,12 l 1,0 c 1.108,0 2,-0.892 2,-2 C 19,8.892 18.108,8 17,8 L 7,8 Z"/>
 <path style="opacity:0.2;fill:#ffffff;fill-rule:evenodd" d="m 7,8 c -1.108,0 -2,0.892 -2,2 0,0.172314 0.027755,0.336771 0.068359,0.496094 C 5.288849,9.6309502 6.064314,8.9921875 7,8.9921875 l 10,0 c 0.935686,0 1.711151,0.6387627 1.931641,1.5039065 C 18.972246,10.336771 19,10.172314 19,10 19,8.892 18.108,8 17,8 L 7,8 Z m 25,0 c -1.108,0 -2,0.892 -2,2 0,0.168248 0.03341,0.326548 0.07227,0.482422 C 30.297549,9.6243741 31.069333,8.9921875 32,8.9921875 l 10,0 c 0.936345,0 1.711787,0.6397837 1.931641,1.5058595 C 43.972772,10.338603 44,10.172969 44,10 44,8.892 43.108,8 42,8 L 32,8 Z M 30.617188,12.417969 16,26.5625 16,27.554688 31.214844,12.832031 c -0.227587,-0.0969 -0.422823,-0.244607 -0.597656,-0.414062 z"/>
</svg>

<svg xmlns="http://www.w3.org/2000/svg" width="48" height="48" version="1">
 <path style="opacity:0.2" d="M 23.999,4 C 22.899,4 21.799,4.41 20.976,5.2323 L 4.2323,21.978 C 2.5876,23.623 2.59,26.375 4.2347,28.02 L 20.979,44.765 C 22.623,46.41 25.378,46.412 27.023,44.768 L 43.767,28.022 C 45.411,26.377 45.411,23.623 43.767,21.978 L 27.023,5.2323 C 26.2,4.41 25.099,4 23.999,4 Z"/>
 <path style="fill:#159532" d="M 23.999,3 C 22.899,3 21.799,3.41 20.976,4.2323 L 4.2323,20.978 C 2.5876,22.623 2.59,25.375 4.2347,27.02 L 20.979,43.765 C 22.623,45.41 25.378,45.412 27.023,43.768 L 43.767,27.022 C 45.411,25.377 45.411,22.623 43.767,20.978 L 27.023,4.2323 C 26.2,3.41 25.099,3 23.999,3 Z"/>
 <path style="opacity:0.2;fill:#ffffff" d="M 24,3 C 22.9,3 21.799,3.4101 20.977,4.2324 L 4.2324,20.979 C 3.2863,21.925 2.9037,23.235 3.0469,24.492 3.1538,23.568 3.5372,22.674 4.2324,21.979 L 20.977,5.2324 C 21.799,4.4101 22.9,4 24,4 25.1,4 26.201,4.4101 27.023,5.2324 L 43.766,21.979 C 44.463,22.675 44.847,23.573 44.953,24.5 45.098,23.24 44.713,21.926 43.766,20.979 L 27.023,4.2324 C 26.201,3.4101 25.1,3 24,3 Z"/>
 <path style="opacity:0.2" d="M 7,9 C 5.892,9 5,9.892 5,11 5,12.108 5.892,13.008 7,13 H 8 V 36.992 C 8.0007,40.524 12.243,42.322 14.781,39.867 L 42.684,12.873 C 43.451,12.594 44,11.866 44,11 44,9.892 43.108,9 42,9 H 32 C 30.892,9 30,9.892 30,11 30,11.828 30.5,12.535 31.215,12.84 L 16,27.555 V 13 H 17 C 18.108,13 19,12.108 19,11 19,9.892 18.108,9 17,9 Z"/>
 <path style="fill:#e4e4e4" d="M 7,8 C 5.892,8 5,8.892 5,10 5,11.108 5.892,12 7,12 H 8 V 36 C 8.0007,39.531 12.243,41.33 14.781,38.875 L 42.684,11.873 C 43.451,11.594 44,10.866 44,10 44,8.892 43.108,8 42,8 H 32 C 30.892,8 30,8.892 30,10 30,10.828 30.5,11.535 31.215,11.84 L 16,26.562 V 12 H 17 C 18.108,12 19,11.108 19,10 19,8.892 18.108,8 17,8 Z"/>
 <path style="opacity:0.2;fill:#ffffff" d="M 7,8 C 5.892,8 5,8.892 5,10 5,10.172 5.0278,10.337 5.0684,10.496 5.2888,9.631 6.0643,8.9922 7,8.9922 H 17 C 17.936,8.9922 18.711,9.631 18.932,10.496 18.972,10.337 19,10.172 19,10 19,8.892 18.108,8 17,8 Z M 32,8 C 30.892,8 30,8.892 30,10 30,10.168 30.033,10.327 30.072,10.482 30.298,9.6244 31.069,8.9922 32,8.9922 H 42 C 42.936,8.9922 43.712,9.632 43.932,10.498 43.973,10.339 44,10.173 44,10 44,8.892 43.108,8 42,8 Z M 30.617,12.418 16,26.562 V 27.555 L 31.215,12.832 C 30.987,12.735 30.792,12.587 30.617,12.418 Z"/>
</svg>
